X:11
T:New Claret. Dix.11
M:9/8
L:1/8
Q:3/8=100
S:Anon. MS dated 1811, from Dixon collection, Holton le Moor, Lincs.
R:jig
O:England;Lincolnshire;Holton le Moor
Z:vmp.R.Greig 2010 <http://www.village-music-project.org.uk>
K:G
G2GB2G B/c/dB|G2GB2G B/c/dB|E2EC2C E/F/GE|D2DF2D F/G/AF:|
|:G2Gg2G B/c/dB|G2Gg2G B/c/dB|c2ce2c e/f/ge|d2df2d f/g/af|
gdB gdB gdB|gdB gdB gdB|ece ece ece|fdf fdf fdf:|

